X: 18289
T: Humours Of Toomagh, The
R: reel
M: 4/4
K: Dmajor
|:fedB A3D|FEDF A3d|fedB A2AD|FEDE FEE2|
fedB A3D|FEDF A3d|fedf a2ab|1 afed BAF2:|2 afed BAFA||
|:d2fd Adfd|a2ab afef|d2fd Adf2|afed BAFA|
d2fd Adfd|a2ab aafa|bafe e2fe|dBAF FEE2:|

